media/ico/ico_shake.svg

<svg width="96" height="96" viewBox="0 0 96 96" fill="none" xmlns="http://www.w3.org/2000/svg">
<path d="M56.3516 8C55.7796 8 55.1972 8.07456 54.6172 8.22656L22.3828 16.8672C18.8228 17.8232 16.7159 21.4791 17.6719 25.0391L33.2109 83.0547C34.0109 86.0347 36.7044 88 39.6484 88C40.2204 88 40.8028 87.9254 41.3828 87.7734L73.6094 79.1328C77.1694 78.1808 79.2801 74.5209 78.3281 70.9609L62.7891 12.9453C61.9891 9.96531 59.2956 8 56.3516 8ZM55.4062 16.2969L57.2891 23.3203L27.6562 31.4219L25.7344 24.25L55.4062 16.2969ZM83 21.3516L75.2734 23.4219L83.9062 55.6562L91.6328 53.5859L83 21.3516ZM59.3594 31.0547L66.2812 56.8906L36.6484 64.9922L29.7266 39.1484L59.3594 31.0547ZM12.0938 40.3516L4.36719 42.4219L13 74.6484L20.7266 72.5781L12.0938 40.3516ZM68.3516 64.625L70.2656 71.75L40.5938 79.7031L38.7188 72.7188L68.3516 64.625Z" fill="#4F4AFF"/>
</svg>

<?xml version="1.0" encoding="utf-8"?>
<!-- Generator: Adobe Illustrator 28.0.0, SVG Export Plug-In . SVG Version: 6.00 Build 0)  -->
<svg version="1.1" id="Layer_1" xmlns="http://www.w3.org/2000/svg" xmlns:xlink="http://www.w3.org/1999/xlink" x="0px" y="0px"
	 viewBox="0 0 96 96" style="enable-background:new 0 0 96 96;" xml:space="preserve">
<style type="text/css">
	.st0{fill:#B3B3B3;}
</style>
<path class="st0" d="M56.4,8c-0.6,0-1.2,0.1-1.7,0.2l-32.2,8.6c-3.6,1-5.7,4.6-4.7,8.2l15.5,58c0.8,3,3.5,4.9,6.4,4.9
	c0.6,0,1.2-0.1,1.7-0.2l32.2-8.6c3.6-1,5.7-4.6,4.7-8.2l-15.5-58C62,10,59.3,8,56.4,8z M55.4,16.3l1.9,7l-29.6,8.1l-1.9-7.2
	L55.4,16.3z M83,21.4l-7.7,2.1l8.6,32.2l7.7-2.1L83,21.4z M59.4,31.1l6.9,25.8L36.6,65l-6.9-25.8L59.4,31.1z M12.1,40.4l-7.7,2.1
	L13,74.6l7.7-2.1L12.1,40.4z M68.4,64.6l1.9,7.1l-29.7,8l-1.9-7L68.4,64.6z"/>
</svg>
